src/lib/images/icons/linkedin.svg

<svg width="32" height="30" viewBox="0 0 32 30" fill="none" xmlns="http://www.w3.org/2000/svg">
<path d="M7.97584 9.63953H1.94002C1.67214 9.63953 1.45508 9.85668 1.45508 10.1245V29.515C1.45508 29.7829 1.67214 29.9999 1.94002 29.9999H7.97584C8.24372 29.9999 8.46078 29.7829 8.46078 29.515V10.1245C8.46078 9.85668 8.24372 9.63953 7.97584 9.63953Z" fill="white"/>
<path d="M4.96043 0C2.76424 0 0.977539 1.78477 0.977539 3.97853C0.977539 6.17326 2.76424 7.9587 4.96043 7.9587C7.15487 7.9587 8.94012 6.17316 8.94012 3.97853C8.94022 1.78477 7.15487 0 4.96043 0Z" fill="white"/>
<path d="M23.3288 9.15759C20.9046 9.15759 19.1126 10.1997 18.0256 11.3838V10.1245C18.0256 9.85668 17.8086 9.63952 17.5407 9.63952H11.7603C11.4924 9.63952 11.2754 9.85668 11.2754 10.1245V29.515C11.2754 29.7829 11.4924 29.9999 11.7603 29.9999H17.783C18.0508 29.9999 18.2679 29.7829 18.2679 29.515V19.9212C18.2679 16.6883 19.146 15.4288 21.3996 15.4288C23.854 15.4288 24.049 17.4479 24.049 20.0875V29.5151C24.049 29.783 24.2661 30 24.534 30H30.5588C30.8267 30 31.0438 29.783 31.0438 29.5151V18.879C31.0438 14.0719 30.1272 9.15759 23.3288 9.15759Z" fill="white"/>
</svg>

<svg width="32" height="30" fill="none" xmlns="http://www.w3.org/2000/svg"><path d="M7.976 9.64H1.94a.485.485 0 0 0-.485.484v19.391c0 .268.217.485.485.485h6.036a.485.485 0 0 0 .485-.485v-19.39a.485.485 0 0 0-.485-.485zM4.96 0A3.985 3.985 0 0 0 .978 3.979a3.986 3.986 0 0 0 3.982 3.98 3.984 3.984 0 0 0 3.98-3.98A3.984 3.984 0 0 0 4.96 0zM23.33 9.158c-2.424 0-4.216 1.042-5.303 2.226v-1.26a.485.485 0 0 0-.485-.484h-5.78a.485.485 0 0 0-.486.484v19.391c0 .268.217.485.485.485h6.023a.485.485 0 0 0 .485-.485v-9.594c0-3.233.878-4.492 3.132-4.492 2.454 0 2.649 2.019 2.649 4.658v9.428c0 .268.217.485.485.485h6.025a.485.485 0 0 0 .485-.485V18.88c0-4.807-.917-9.721-7.715-9.721z" fill="#fff"/></svg>
